icons/networks/logos/blockscout.svg

<svg width="114" height="20" viewBox="0 0 114 20" fill="none" xmlns="http://www.w3.org/2000/svg">
<path fill-rule="evenodd" clip-rule="evenodd" d="M7.20948 0C7.76176 0 8.20948 0.447715 8.20948 1V3.16667C8.20948 3.71895 7.76176 4.16667 7.20948 4.16667H5.68822C5.13593 4.16667 4.68822 4.61438 4.68822 5.16667V18.9999C4.68822 19.5522 4.2405 19.9999 3.68822 19.9999H1.5C0.947716 19.9999 0.5 19.5522 0.5 18.9999V5.16654C0.5 4.61426 0.947715 4.16654 1.5 4.16654H3.02126C3.57354 4.16654 4.02126 3.71883 4.02126 3.16654V1C4.02126 0.447715 4.46897 0 5.02126 0H7.20948ZM15.6143 0C16.1666 0 16.6143 0.447715 16.6143 1V3.16654C16.6143 3.71883 17.062 4.16654 17.6143 4.16654H18.9896C19.5419 4.16654 19.9896 4.61426 19.9896 5.16654V18.9999C19.9896 19.5522 19.5419 19.9999 18.9896 19.9999H16.8014C16.2491 19.9999 15.8014 19.5522 15.8014 18.9999V5.16667C15.8014 4.61438 15.3537 4.16667 14.8014 4.16667H13.4261C12.8738 4.16667 12.4261 3.71895 12.4261 3.16667V1C12.4261 0.447716 12.8738 0 13.4261 0H15.6143ZM11.3681 7.97607C11.9204 7.97607 12.3681 8.42379 12.3681 8.97607V15.0713C12.3681 15.6236 11.9204 16.0713 11.3681 16.0713H9.17991C8.62763 16.0713 8.17991 15.6236 8.17991 15.0713V8.97607C8.17991 8.42379 8.62763 7.97607 9.17991 7.97607H11.3681ZM38.1437 5.84463H39.1793L39.1744 15.5552H40.9954V4.18066H38.1437V5.84463ZM33.1496 4.53266H28.2021V15.5626H33.4245C35.6504 15.5626 36.8774 14.1669 36.8774 12.3922C36.8943 11.7746 36.7084 11.1687 36.3484 10.6674C35.9883 10.1662 35.474 9.79752 34.8847 9.61809V9.5664C35.3403 9.37253 35.7269 9.045 35.9936 8.62679C36.2603 8.20859 36.3948 7.71927 36.3792 7.22306C36.3792 5.6354 35.2454 4.53266 33.1496 4.53266ZM34.5411 7.53813C34.5411 8.42919 33.9742 9.01503 33.184 9.01503H30.0452V6.06124H33.184C33.9742 6.06124 34.5411 6.64707 34.5411 7.53813ZM35.0393 12.2716C35.0393 13.3226 34.3521 14.0463 33.4073 14.0463H30.0452V10.5141H33.4073C34.3521 10.5141 35.0393 11.2205 35.0393 12.2716ZM42.6814 11.479C42.6814 8.98056 44.5219 7.13691 47.0644 7.13691C49.6068 7.13691 51.4621 8.96333 51.4621 11.479C51.4621 13.9946 49.624 15.8038 47.0644 15.8038C44.5048 15.8038 42.6814 13.9774 42.6814 11.479ZM46.5834 14.1669H47.565C48.6816 14.1669 49.6608 12.978 49.6608 11.479C49.6608 9.97993 48.6792 8.77134 47.565 8.77134H46.5834C45.4668 8.77134 44.4876 10.0021 44.4876 11.479C44.4876 12.9559 45.4668 14.1669 46.5834 14.1669ZM56.925 7.13691C54.3997 7.13691 52.645 8.91164 52.645 11.4617C52.645 14.0118 54.3801 15.8038 56.898 15.8186C58.9693 15.8186 60.5791 14.7158 60.8246 12.5965H59.0551C59.0164 13.0352 58.8148 13.4434 58.4903 13.7402C58.1658 14.0369 57.742 14.2006 57.3029 14.1989H56.444C55.3445 14.1989 54.4512 12.978 54.4512 11.4765C54.4512 9.97501 55.3445 8.76888 56.444 8.76888H57.3029C58.0931 8.76888 58.8662 9.25133 59.038 10.3368H60.8074C60.5497 8.18797 58.9521 7.13691 56.925 7.13691ZM62.4541 4.18066H64.2578V10.455H65.5659L68.0053 7.37075H70.0667L67.0604 11.1787L70.2041 15.5552H68.0396L65.4113 11.9368H64.2578V15.5552H62.4541V4.18066ZM72.7637 13.0986H71.0287C71.095 14.8906 72.2558 15.8038 74.6485 15.8013C77.1222 15.8013 78.2389 14.8709 78.2389 13.1823C78.2389 11.8728 77.5173 11.0285 75.9541 10.839L74.0276 10.5928C73.2889 10.4895 72.9454 10.1276 72.9454 9.59348C72.9454 9.05933 73.3061 8.6458 74.0792 8.6458H75.1123C76.0056 8.6458 76.2977 9.14548 76.3835 9.85193H78.1186C78.0524 7.97382 76.7811 7.12953 74.6829 7.12953C72.4914 7.12953 71.2643 8.02551 71.2643 9.67963C71.2643 10.9374 71.9858 11.9024 73.6006 12.0919L75.5099 12.338C76.2486 12.4439 76.5578 12.7713 76.5578 13.3226C76.5578 13.874 76.1799 14.2875 75.3725 14.2875H74.2362C73.2963 14.2875 72.8496 13.8223 72.7637 13.0986ZM79.3727 11.4617C79.3727 8.91164 81.1249 7.13691 83.6526 7.13691C85.6797 7.13691 87.2773 8.18797 87.535 10.3368H85.7656C85.5938 9.25133 84.8208 8.76888 84.0305 8.76888H83.1716C82.0697 8.76888 81.1764 9.97501 81.1764 11.4765C81.1764 12.978 82.0697 14.1989 83.1716 14.1989H84.0305C84.4697 14.2006 84.8935 14.0369 85.218 13.7402C85.5425 13.4434 85.744 13.0352 85.7828 12.5965H87.5522C87.3068 14.7158 85.6969 15.8186 83.6256 15.8186C81.1101 15.8038 79.3727 14.0118 79.3727 11.4617ZM93.0788 7.13691C90.5364 7.13691 88.6982 8.98056 88.6982 11.479C88.6982 13.9774 90.5167 15.8038 93.0788 15.8038C95.6409 15.8038 97.479 13.9946 97.479 11.479C97.479 8.96333 95.6213 7.13691 93.0788 7.13691ZM93.5795 14.1669H92.6027C91.4861 14.1669 90.502 12.9559 90.502 11.479C90.502 10.0021 91.4812 8.77134 92.5978 8.77134H93.5795C94.6961 8.77134 95.6777 9.97993 95.6777 11.479C95.6777 12.978 94.6961 14.1669 93.5795 14.1669ZM98.976 12.53V7.3806H100.78V12.2223C100.78 13.4112 101.381 14.1177 102.171 14.1177H103.153C103.995 14.1177 104.751 13.3423 104.751 12.2223V7.3806H106.557V15.565H104.802V14.4451C104.311 15.2894 103.445 15.8063 102.122 15.8063C100.144 15.8038 98.976 14.6494 98.976 12.53ZM109.558 8.97318V13.65C109.558 14.8734 110.294 15.5626 111.615 15.565H113.578V13.9282H112.135C111.551 13.9282 111.379 13.6697 111.379 13.1356V8.9658H113.509V7.3806H111.379V5.08649H109.558V7.3806H107.978V8.97318H109.558Z" fill="#2B6CB0"/>
</svg>

<svg viewBox="0 0 114 20" fill="none" xmlns="http://www.w3.org/2000/svg">
  <path fill-rule="evenodd" clip-rule="evenodd" d="M7.21 0a1 1 0 0 1 1 1v2.167a1 1 0 0 1-1 1H5.687a1 1 0 0 0-1 1V19a1 1 0 0 1-1 1H1.5a1 1 0 0 1-1-1V5.167a1 1 0 0 1 1-1h1.521a1 1 0 0 0 1-1V1a1 1 0 0 1 1-1H7.21Zm8.404 0a1 1 0 0 1 1 1v2.167a1 1 0 0 0 1 1h1.376a1 1 0 0 1 1 1V19a1 1 0 0 1-1 1H16.8a1 1 0 0 1-1-1V5.167a1 1 0 0 0-1-1h-1.375a1 1 0 0 1-1-1V1a1 1 0 0 1 1-1h2.188Zm-4.246 7.976a1 1 0 0 1 1 1v6.095a1 1 0 0 1-1 1H9.18a1 1 0 0 1-1-1V8.976a1 1 0 0 1 1-1h2.188Zm26.776-2.131h1.035l-.005 9.71h1.821V4.181h-2.851v1.664ZM33.15 4.533h-4.948v11.03h5.223c2.225 0 3.452-1.396 3.452-3.17a2.825 2.825 0 0 0-.529-1.726 2.81 2.81 0 0 0-1.463-1.049v-.052a2.456 2.456 0 0 0 1.494-2.343c0-1.588-1.134-2.69-3.23-2.69Zm1.391 3.005c0 .891-.567 1.477-1.357 1.477h-3.139V6.061h3.139c.79 0 1.357.586 1.357 1.477Zm.498 4.734c0 1.05-.687 1.774-1.632 1.774h-3.362v-3.532h3.362c.945 0 1.632.707 1.632 1.758Zm7.642-.793c0-2.498 1.84-4.342 4.383-4.342s4.398 1.826 4.398 4.342c0 2.516-1.838 4.325-4.398 4.325-2.56 0-4.383-1.827-4.383-4.325Zm3.902 2.688h.982c1.117 0 2.096-1.189 2.096-2.688 0-1.5-.982-2.708-2.096-2.708h-.982c-1.116 0-2.095 1.231-2.095 2.708s.979 2.688 2.095 2.688Zm10.342-7.03c-2.525 0-4.28 1.775-4.28 4.325 0 2.55 1.735 4.342 4.253 4.357 2.071 0 3.681-1.103 3.927-3.223h-1.77a1.75 1.75 0 0 1-1.752 1.602h-.859c-1.1 0-1.993-1.22-1.993-2.722 0-1.501.893-2.707 1.993-2.707h.859c.79 0 1.563.482 1.735 1.568h1.77c-.258-2.149-1.856-3.2-3.883-3.2Zm5.53-2.956h1.803v6.274h1.308l2.44-3.084h2.06l-3.006 3.808 3.144 4.376H68.04l-2.629-3.618h-1.153v3.618h-1.804V4.181Zm10.309 8.918h-1.735c.066 1.792 1.227 2.705 3.62 2.702 2.473 0 3.59-.93 3.59-2.619 0-1.31-.722-2.154-2.285-2.343l-1.926-.246c-.74-.104-1.083-.465-1.083-1 0-.534.361-.947 1.134-.947h1.033c.894 0 1.186.5 1.272 1.206h1.735c-.067-1.878-1.338-2.722-3.436-2.722-2.192 0-3.419.896-3.419 2.55 0 1.257.722 2.222 2.337 2.412l1.909.246c.739.106 1.048.433 1.048.985 0 .551-.378.964-1.186.964h-1.136c-.94 0-1.386-.465-1.472-1.188Zm6.609-1.637c0-2.55 1.752-4.325 4.28-4.325 2.027 0 3.624 1.051 3.882 3.2h-1.77c-.171-1.086-.944-1.568-1.734-1.568h-.86c-1.101 0-1.995 1.206-1.995 2.707 0 1.502.894 2.723 1.996 2.723h.859a1.75 1.75 0 0 0 1.752-1.602h1.77c-.246 2.119-1.856 3.222-3.927 3.222-2.516-.015-4.253-1.807-4.253-4.357Zm13.706-4.325c-2.543 0-4.38 1.844-4.38 4.342 0 2.498 1.818 4.325 4.38 4.325s4.4-1.81 4.4-4.325c0-2.516-1.858-4.342-4.4-4.342Zm.5 7.03h-.976c-1.117 0-2.101-1.211-2.101-2.688s.98-2.708 2.096-2.708h.981c1.117 0 2.099 1.209 2.099 2.708s-.982 2.688-2.099 2.688Zm5.397-1.637V7.38h1.804v4.842c0 1.19.601 1.896 1.391 1.896h.982c.842 0 1.598-.776 1.598-1.896V7.381h1.806v8.184h-1.755v-1.12c-.491.844-1.357 1.361-2.68 1.361-1.978-.002-3.146-1.157-3.146-3.276Zm10.582-3.557v4.677c0 1.223.736 1.913 2.057 1.915h1.963v-1.637h-1.443c-.584 0-.756-.258-.756-.792v-4.17h2.13V7.38h-2.13V5.086h-1.821v2.295h-1.58v1.592h1.58Z" fill="#2B6CB0"/>
</svg>
